assets/images/meta_des.svg

<svg height="12" viewBox="0 0 12 12" width="12" xmlns="http://www.w3.org/2000/svg"><g fill="none" fill-rule="evenodd"><path d="m0 0h12v12h-12z"/><g fill-rule="nonzero"><path d="m6 0c3.3 0 6 2.7 6 6s-2.7 6-6 6-6-2.7-6-6 2.7-6 6-6zm0 1c-2.74771525 0-5 2.25228475-5 5s2.25228475 5 5 5 5-2.25228475 5-5-2.25228475-5-5-5z" fill="#dcdcdc"/><path d="m6 3c-1.65 0-3 1.35-3 3s1.35 3 3 3 3-1.35 3-3-1.35-3-3-3z" fill="#dcdcdc"/><path d="m6 5c-.55 0-1 .45-1 1s.45 1 1 1 1-.45 1-1-.45-1-1-1z" fill="#999"/></g></g></svg>

<?xml version="1.0" encoding="UTF-8"?>
<svg width="12px" height="12px" viewBox="0 0 12 12" version="1.1" xmlns="http://www.w3.org/2000/svg" xmlns:xlink="http://www.w3.org/1999/xlink">
    <title>切片</title>
    <g id="页面-1" stroke="none" stroke-width="1" fill="none" fill-rule="evenodd">
        <g id="呼吸灯">
            <rect id="矩形" x="0" y="0" width="12" height="12"></rect>
            <path d="M6,0 C9.3,0 12,2.7 12,6 C12,9.3 9.3,12 6,12 C2.7,12 0,9.3 0,6 C0,2.7 2.7,0 6,0 Z M6,1 C3.25228475,1 1,3.25228475 1,6 C1,8.74771525 3.25228475,11 6,11 C8.74771525,11 11,8.74771525 11,6 C11,3.25228475 8.74771525,1 6,1 Z" id="形状" fill="#DCDCDC" fill-rule="nonzero"></path>
            <path d="M6,3 C4.35,3 3,4.35 3,6 C3,7.65 4.35,9 6,9 C7.65,9 9,7.65 9,6 C9,4.35 7.65,3 6,3 Z" id="形状" fill="#DCDCDC" fill-rule="nonzero"></path>
            <path d="M6,5 C5.45,5 5,5.45 5,6 C5,6.55 5.45,7 6,7 C6.55,7 7,6.55 7,6 C7,5.45 6.55,5 6,5 Z" id="形状" fill="#999999" fill-rule="nonzero"></path>
        </g>
    </g>
</svg>
